X:2240
T:No Title
T:(Gyn Ennym) 
C:Mrs Corlett Glen Auldyn
C:Traditional
O:Isle of Man
Z:Clague collection
B:Kiaull Vannin #240 
L:1/8
M:6/8 
Q:160 
K:D 
E|G2A B2B|AGF E2A|Bcd edc|B3 B2B|B2B A2B|G2E F2A|B2B AGF|E3 E2|| 

